svg/color/haus.svg

<?xml version="1.0" encoding="UTF-8" ?>
<!DOCTYPE svg PUBLIC "-//W3C//DTD SVG 1.1//EN" "http://www.w3.org/Graphics/SVG/1.1/DTD/svg11.dtd">
<svg width="250pt" height="250pt" viewBox="0 0 250 250" version="1.1" xmlns="http://www.w3.org/2000/svg">
<g id="#ffffffff">
<path fill="#ffffff" opacity="1.00" d=" M 0.00 0.00 L 119.77 0.00 C 87.59 1.38 56.18 15.61 34.14 39.12 C 13.38 60.93 1.08 90.41 0.00 120.49 L 0.00 0.00 Z" />
<path fill="#ffffff" opacity="1.00" d=" M 129.54 0.00 L 250.00 0.00 L 250.00 119.80 C 248.58 85.73 232.66 52.50 206.65 30.37 C 185.42 11.81 157.69 1.06 129.54 0.00 Z" />
<path fill="#ffffff" opacity="1.00" d=" M 220.07 206.14 C 238.36 184.98 248.95 157.47 250.00 129.54 L 250.00 250.00 L 130.23 250.00 C 164.52 248.56 197.94 232.43 220.07 206.14 Z" />
<path fill="#ffffff" opacity="1.00" d=" M 0.00 130.08 C 1.38 164.21 17.32 197.50 43.37 219.65 C 64.61 238.20 92.34 248.95 120.50 250.00 L 0.00 250.00 L 0.00 130.08 Z" />
</g>
<g id="#0e1235ff">
<path fill="#0e1235" opacity="1.00" d=" M 119.77 0.00 L 129.54 0.00 C 157.69 1.06 185.42 11.81 206.65 30.37 C 232.66 52.50 248.58 85.73 250.00 119.80 L 250.00 129.54 C 248.95 157.47 238.36 184.98 220.07 206.14 C 197.94 232.43 164.52 248.56 130.23 250.00 L 120.50 250.00 C 92.34 248.95 64.61 238.20 43.37 219.65 C 17.32 197.50 1.38 164.21 0.00 130.08 L 0.00 120.49 C 1.08 90.41 13.38 60.93 34.14 39.12 C 56.18 15.61 87.59 1.38 119.77 0.00 M 145.99 63.07 C 137.06 68.68 131.77 79.04 131.50 89.49 C 142.15 89.56 152.80 89.52 163.45 89.51 C 163.43 78.88 163.51 68.25 163.40 57.62 C 157.30 58.14 151.11 59.54 145.99 63.07 M 167.24 89.53 C 177.79 89.51 188.33 89.52 198.88 89.52 C 199.14 79.78 194.26 70.29 186.55 64.43 C 181.12 60.03 174.19 58.21 167.34 57.60 C 167.11 68.24 167.29 78.88 167.24 89.53 M 57.39 89.53 C 67.99 89.49 78.59 89.57 89.19 89.48 C 89.19 79.52 89.20 69.57 89.19 59.61 C 78.60 59.56 68.01 59.61 57.42 59.58 C 57.34 69.56 57.39 79.54 57.39 89.53 M 92.68 59.61 C 92.66 69.56 92.68 79.52 92.67 89.48 C 103.29 89.56 113.92 89.50 124.55 89.52 C 124.55 79.54 124.57 69.56 124.53 59.58 C 113.91 59.60 103.30 59.56 92.68 59.61 M 57.39 124.56 C 60.10 124.55 62.82 124.55 65.54 124.56 C 65.46 113.96 65.68 103.36 65.42 92.76 C 62.79 92.77 60.16 92.76 57.54 92.74 C 57.19 103.34 57.47 113.95 57.39 124.56 M 69.25 92.78 C 69.14 103.38 69.15 113.99 69.24 124.59 C 71.94 124.56 74.64 124.54 77.33 124.50 C 77.30 113.93 77.37 103.36 77.30 92.79 C 74.61 92.78 71.93 92.78 69.25 92.78 M 80.93 93.81 C 80.63 104.04 80.91 114.28 80.82 124.51 C 83.61 124.54 86.40 124.55 89.19 124.53 C 89.09 114.29 89.37 104.04 89.08 93.80 C 88.89 93.57 88.50 93.09 88.30 92.85 C 85.97 93.05 82.55 91.68 80.93 93.81 M 92.63 93.29 C 92.83 103.69 92.68 114.10 92.72 124.51 C 103.35 124.60 113.99 124.53 124.62 124.55 C 124.57 113.96 124.73 103.36 124.54 92.76 C 113.91 93.11 103.20 92.13 92.63 93.29 M 131.69 92.78 C 131.65 103.37 131.62 113.95 131.71 124.54 C 141.40 114.97 151.05 105.35 160.69 95.73 C 161.51 94.78 162.27 93.79 163.08 92.84 C 152.62 92.71 142.15 92.81 131.69 92.78 M 167.16 93.20 C 167.18 103.68 167.16 114.15 167.18 124.63 C 177.71 124.62 188.24 124.61 198.77 124.63 C 198.78 114.15 198.77 103.67 198.78 93.19 C 188.24 93.21 177.70 93.19 167.16 93.20 M 68.51 128.88 C 62.11 130.88 57.16 137.16 57.35 143.97 C 57.01 152.70 65.25 160.58 73.97 159.74 C 83.85 159.82 91.68 148.89 88.47 139.55 C 86.25 131.22 76.64 126.28 68.51 128.88 M 93.24 128.27 C 93.23 138.77 93.23 149.28 93.24 159.78 C 95.94 159.78 98.65 159.78 101.35 159.79 C 101.40 149.31 101.31 138.83 101.40 128.35 C 98.68 128.31 95.96 128.28 93.24 128.27 M 104.75 128.39 C 104.80 138.81 104.82 149.23 104.74 159.64 C 107.60 159.80 110.47 159.79 113.33 159.63 C 113.21 149.21 113.27 138.79 113.29 128.36 C 110.44 128.28 107.60 128.29 104.75 128.39 M 116.71 128.41 C 116.83 138.86 116.72 149.32 116.77 159.77 C 119.53 159.78 122.29 159.78 125.05 159.76 C 124.94 149.27 124.98 138.78 125.05 128.29 C 122.27 128.28 119.49 128.31 116.71 128.41 M 145.31 134.29 C 137.18 140.02 132.26 149.84 132.22 159.76 C 142.83 159.79 153.45 159.79 164.07 159.76 C 164.21 149.24 164.26 138.72 164.04 128.21 C 157.35 128.20 150.70 130.32 145.31 134.29 M 179.48 128.71 C 172.32 130.45 167.15 137.72 167.64 145.03 C 168.12 153.23 175.70 160.39 184.02 159.74 C 193.11 160.02 200.85 150.86 199.37 141.94 C 198.37 132.73 188.39 126.13 179.48 128.71 M 57.27 163.34 C 56.98 180.26 72.20 195.50 89.19 194.85 C 89.17 184.85 89.24 174.85 89.17 164.85 C 89.69 162.74 87.10 163.51 85.99 163.30 C 76.42 163.35 66.84 163.30 57.27 163.34 M 92.71 163.38 C 92.73 173.84 92.74 184.31 92.70 194.77 C 109.72 195.65 125.00 180.25 124.71 163.34 C 114.04 163.35 103.37 163.27 92.71 163.38 M 132.33 163.37 C 141.67 172.80 151.13 182.11 160.50 191.52 C 161.63 192.58 162.85 193.55 164.06 194.53 C 164.20 184.14 164.28 173.74 164.01 163.35 C 153.45 163.33 142.89 163.29 132.33 163.37 M 167.62 163.33 C 167.72 173.85 167.41 184.37 167.75 194.88 C 178.31 195.59 188.94 194.89 199.52 195.18 C 199.99 178.10 184.63 162.96 167.62 163.33 Z" />
</g>
<g id="#1a84ddff">
<path fill="#1a84dd" opacity="1.00" d=" M 145.99 63.07 C 151.11 59.54 157.30 58.14 163.40 57.62 C 163.51 68.25 163.43 78.88 163.45 89.51 C 152.80 89.52 142.15 89.56 131.50 89.49 C 131.77 79.04 137.06 68.68 145.99 63.07 Z" />
<path fill="#1a84dd" opacity="1.00" d=" M 57.39 124.56 C 57.47 113.95 57.19 103.34 57.54 92.74 C 60.16 92.76 62.79 92.77 65.42 92.76 C 65.68 103.36 65.46 113.96 65.54 124.56 C 62.82 124.55 60.10 124.55 57.39 124.56 Z" />
<path fill="#1a84dd" opacity="1.00" d=" M 69.25 92.78 C 71.93 92.78 74.61 92.78 77.30 92.79 C 77.37 103.36 77.30 113.93 77.33 124.50 C 74.64 124.54 71.94 124.56 69.24 124.59 C 69.15 113.99 69.14 103.38 69.25 92.78 Z" />
<path fill="#1a84dd" opacity="1.00" d=" M 80.93 93.81 C 82.55 91.68 85.97 93.05 88.30 92.85 C 88.50 93.09 88.89 93.57 89.08 93.80 C 89.37 104.04 89.09 114.29 89.19 124.53 C 86.40 124.55 83.61 124.54 80.82 124.51 C 80.91 114.28 80.63 104.04 80.93 93.81 Z" />
<path fill="#1a84dd" opacity="1.00" d=" M 145.31 134.29 C 150.70 130.32 157.35 128.20 164.04 128.21 C 164.26 138.72 164.21 149.24 164.07 159.76 C 153.45 159.79 142.83 159.79 132.22 159.76 C 132.26 149.84 137.18 140.02 145.31 134.29 Z" />
<path fill="#1a84dd" opacity="1.00" d=" M 57.27 163.34 C 66.84 163.30 76.42 163.35 85.99 163.30 C 87.10 163.51 89.69 162.74 89.17 164.85 C 89.24 174.85 89.17 184.85 89.19 194.85 C 72.20 195.50 56.98 180.26 57.27 163.34 Z" />
</g>
<g id="#f2cf63ff">
<path fill="#f2cf63" opacity="1.00" d=" M 167.24 89.53 C 167.29 78.88 167.11 68.24 167.34 57.60 C 174.19 58.21 181.12 60.03 186.55 64.43 C 194.26 70.29 199.14 79.78 198.88 89.52 C 188.33 89.52 177.79 89.51 167.24 89.53 Z" />
<path fill="#f2cf63" opacity="1.00" d=" M 92.63 93.29 C 103.20 92.13 113.91 93.11 124.54 92.76 C 124.73 103.36 124.57 113.96 124.62 124.55 C 113.99 124.53 103.35 124.60 92.72 124.51 C 92.68 114.10 92.83 103.69 92.63 93.29 Z" />
<path fill="#f2cf63" opacity="1.00" d=" M 179.48 128.71 C 188.39 126.13 198.37 132.73 199.37 141.94 C 200.85 150.86 193.11 160.02 184.02 159.74 C 175.70 160.39 168.12 153.23 167.64 145.03 C 167.15 137.72 172.32 130.45 179.48 128.71 Z" />
<path fill="#f2cf63" opacity="1.00" d=" M 92.71 163.38 C 103.37 163.27 114.04 163.35 124.71 163.34 C 125.00 180.25 109.72 195.65 92.70 194.77 C 92.74 184.31 92.73 173.84 92.71 163.38 Z" />
</g>
<g id="#fe1d5bff">
<path fill="#fe1d5b" opacity="1.00" d=" M 57.39 89.53 C 57.39 79.54 57.34 69.56 57.42 59.58 C 68.01 59.61 78.60 59.56 89.19 59.61 C 89.20 69.57 89.19 79.52 89.19 89.48 C 78.59 89.57 67.99 89.49 57.39 89.53 Z" />
<path fill="#fe1d5b" opacity="1.00" d=" M 131.69 92.78 C 142.15 92.81 152.62 92.71 163.08 92.84 C 162.27 93.79 161.51 94.78 160.69 95.73 C 151.05 105.35 141.40 114.97 131.71 124.54 C 131.62 113.95 131.65 103.37 131.69 92.78 Z" />
<path fill="#fe1d5b" opacity="1.00" d=" M 93.24 128.27 C 95.96 128.28 98.68 128.31 101.40 128.35 C 101.31 138.83 101.40 149.31 101.35 159.79 C 98.65 159.78 95.94 159.78 93.24 159.78 C 93.23 149.28 93.23 138.77 93.24 128.27 Z" />
<path fill="#fe1d5b" opacity="1.00" d=" M 104.75 128.39 C 107.60 128.29 110.44 128.28 113.29 128.36 C 113.27 138.79 113.21 149.21 113.33 159.63 C 110.47 159.79 107.60 159.80 104.74 159.64 C 104.82 149.23 104.80 138.81 104.75 128.39 Z" />
<path fill="#fe1d5b" opacity="1.00" d=" M 116.71 128.41 C 119.49 128.31 122.27 128.28 125.05 128.29 C 124.98 138.78 124.94 149.27 125.05 159.76 C 122.29 159.78 119.53 159.78 116.77 159.77 C 116.72 149.32 116.83 138.86 116.71 128.41 Z" />
<path fill="#fe1d5b" opacity="1.00" d=" M 167.62 163.33 C 184.63 162.96 199.99 178.10 199.52 195.18 C 188.94 194.89 178.31 195.59 167.75 194.88 C 167.41 184.37 167.72 173.85 167.62 163.33 Z" />
</g>
<g id="#6d94ceff">
<path fill="#6d94ce" opacity="1.00" d=" M 92.68 59.61 C 103.30 59.56 113.91 59.60 124.53 59.58 C 124.57 69.56 124.55 79.54 124.55 89.52 C 113.92 89.50 103.29 89.56 92.67 89.48 C 92.68 79.52 92.66 69.56 92.68 59.61 Z" />
<path fill="#6d94ce" opacity="1.00" d=" M 167.16 93.20 C 177.70 93.19 188.24 93.21 198.78 93.19 C 198.77 103.67 198.78 114.15 198.77 124.63 C 188.24 124.61 177.71 124.62 167.18 124.63 C 167.16 114.15 167.18 103.68 167.16 93.20 Z" />
<path fill="#6d94ce" opacity="1.00" d=" M 68.51 128.88 C 76.64 126.28 86.25 131.22 88.47 139.55 C 91.68 148.89 83.85 159.82 73.97 159.74 C 65.25 160.58 57.01 152.70 57.35 143.97 C 57.16 137.16 62.11 130.88 68.51 128.88 Z" />
<path fill="#6d94ce" opacity="1.00" d=" M 132.33 163.37 C 142.89 163.29 153.45 163.33 164.01 163.35 C 164.28 173.74 164.20 184.14 164.06 194.53 C 162.85 193.55 161.63 192.58 160.50 191.52 C 151.13 182.11 141.67 172.80 132.33 163.37 Z" />
</g>
</svg>

<?xml version="1.0" encoding="utf-8"?>
<!-- Generator: Adobe Illustrator 26.0.3, SVG Export Plug-In . SVG Version: 6.00 Build 0)  -->
<svg version="1.1" id="Layer_1" xmlns="http://www.w3.org/2000/svg" xmlns:xlink="http://www.w3.org/1999/xlink" x="0px" y="0px"
	 viewBox="0 0 250 250" style="enable-background:new 0 0 250 250;" xml:space="preserve">
<style type="text/css">
	.st0{fill:#0E1235;}
	.st1{fill:#1A84DD;}
	.st2{fill:#F2CF63;}
	.st3{fill:#FE1D5B;}
	.st4{fill:#6D94CE;}
</style>
<g id="_x23_0e1235ff">
	<path class="st0" d="M119.8,0h9.8c28.2,1.1,55.9,11.8,77.1,30.4c26,22.1,41.9,55.4,43.4,89.4v9.7c-1.1,27.9-11.6,55.4-29.9,76.6
		c-22.1,26.3-55.6,42.4-89.8,43.9h-9.7c-28.2-1.1-55.9-11.8-77.1-30.4c-26-22.1-42-55.4-43.4-89.6v-9.6
		c1.1-30.1,13.4-59.6,34.1-81.4C56.2,15.6,87.6,1.4,119.8,0 M146,63.1c-8.9,5.6-14.2,16-14.5,26.4c10.6,0.1,21.3,0,31.9,0
		c0-10.6,0.1-21.3-0.1-31.9C157.3,58.1,151.1,59.5,146,63.1 M167.2,89.5c10.5,0,21.1,0,31.6,0c0.3-9.7-4.6-19.2-12.3-25.1
		c-5.4-4.4-12.4-6.2-19.2-6.8C167.1,68.2,167.3,78.9,167.2,89.5 M57.4,89.5c10.6,0,21.2,0,31.8,0c0-10,0-19.9,0-29.9
		c-10.6,0-21.2,0-31.8,0C57.3,69.6,57.4,79.5,57.4,89.5 M92.7,59.6c0,9.9,0,19.9,0,29.9c10.6,0.1,21.2,0,31.9,0c0-10,0-20,0-29.9
		C113.9,59.6,103.3,59.6,92.7,59.6 M57.4,124.6c2.7,0,5.4,0,8.2,0c-0.1-10.6,0.1-21.2-0.1-31.8c-2.6,0-5.3,0-7.9,0
		C57.2,103.3,57.5,113.9,57.4,124.6 M69.2,92.8c-0.1,10.6-0.1,21.2,0,31.8c2.7,0,5.4,0,8.1-0.1c0-10.6,0-21.1,0-31.7
		C74.6,92.8,71.9,92.8,69.2,92.8 M80.9,93.8c-0.3,10.2,0,20.5-0.1,30.7c2.8,0,5.6,0,8.4,0c-0.1-10.2,0.2-20.5-0.1-30.7
		c-0.2-0.2-0.6-0.7-0.8-1C86,93.1,82.6,91.7,80.9,93.8 M92.6,93.3c0.2,10.4,0.1,20.8,0.1,31.2c10.6,0.1,21.3,0,31.9,0
		c-0.1-10.6,0.1-21.2-0.1-31.8C113.9,93.1,103.2,92.1,92.6,93.3 M131.7,92.8c0,10.6-0.1,21.2,0,31.8c9.7-9.6,19.3-19.2,29-28.8
		c0.8-1,1.6-1.9,2.4-2.9C152.6,92.7,142.1,92.8,131.7,92.8 M167.2,93.2c0,10.5,0,21,0,31.4c10.5,0,21.1,0,31.6,0c0-10.5,0-21,0-31.4
		C188.2,93.2,177.7,93.2,167.2,93.2 M68.5,128.9c-6.4,2-11.4,8.3-11.2,15.1c-0.3,8.7,7.9,16.6,16.6,15.8
		c9.9,0.1,17.7-10.9,14.5-20.2C86.2,131.2,76.6,126.3,68.5,128.9 M93.2,128.3c0,10.5,0,21,0,31.5c2.7,0,5.4,0,8.1,0
		c0.1-10.5,0-21,0.1-31.4C98.7,128.3,96,128.3,93.2,128.3 M104.8,128.4c0.1,10.4,0.1,20.8,0,31.2c2.9,0.2,5.7,0.1,8.6,0
		c-0.1-10.4-0.1-20.8,0-31.3C110.4,128.3,107.6,128.3,104.8,128.4 M116.7,128.4c0.1,10.4,0,20.9,0.1,31.4c2.8,0,5.5,0,8.3,0
		c-0.1-10.5-0.1-21,0-31.5C122.3,128.3,119.5,128.3,116.7,128.4 M145.3,134.3c-8.1,5.7-13.1,15.6-13.1,25.5c10.6,0,21.2,0,31.9,0
		c0.1-10.5,0.2-21,0-31.5C157.4,128.2,150.7,130.3,145.3,134.3 M179.5,128.7c-7.2,1.7-12.3,9-11.8,16.3c0.5,8.2,8.1,15.4,16.4,14.7
		c9.1,0.3,16.8-8.9,15.3-17.8C198.4,132.7,188.4,126.1,179.5,128.7 M57.3,163.3c-0.3,16.9,14.9,32.2,31.9,31.5c0-10,0-20,0-30
		c0.5-2.1-2.1-1.3-3.2-1.6C76.4,163.4,66.8,163.3,57.3,163.3 M92.7,163.4c0,10.5,0,20.9,0,31.4c17,0.9,32.3-14.5,32-31.4
		C114,163.4,103.4,163.3,92.7,163.4 M132.3,163.4c9.3,9.4,18.8,18.7,28.2,28.2c1.1,1.1,2.4,2,3.6,3c0.1-10.4,0.2-20.8-0.1-31.2
		C153.4,163.3,142.9,163.3,132.3,163.4 M167.6,163.3c0.1,10.5-0.2,21,0.1,31.6c10.6,0.7,21.2,0,31.8,0.3
		C200,178.1,184.6,163,167.6,163.3z"/>
</g>
<g id="_x23_1a84ddff">
	<path class="st1" d="M146,63.1c5.1-3.5,11.3-4.9,17.4-5.5c0.1,10.6,0,21.3,0.1,31.9c-10.6,0-21.3,0-31.9,0
		C131.8,79,137.1,68.7,146,63.1z"/>
	<path class="st1" d="M57.4,124.6c0.1-10.6-0.2-21.2,0.2-31.8c2.6,0,5.2,0,7.9,0c0.3,10.6,0,21.2,0.1,31.8
		C62.8,124.6,60.1,124.6,57.4,124.6z"/>
	<path class="st1" d="M69.2,92.8c2.7,0,5.4,0,8.1,0c0.1,10.6,0,21.1,0,31.7c-2.7,0-5.4,0.1-8.1,0.1C69.2,114,69.1,103.4,69.2,92.8z"
		/>
	<path class="st1" d="M80.9,93.8c1.6-2.1,5-0.8,7.4-1c0.2,0.2,0.6,0.7,0.8,1c0.3,10.2,0,20.5,0.1,30.7c-2.8,0-5.6,0-8.4,0
		C80.9,114.3,80.6,104,80.9,93.8z"/>
	<path class="st1" d="M145.3,134.3c5.4-4,12-6.1,18.7-6.1c0.2,10.5,0.2,21,0,31.5c-10.6,0-21.2,0-31.9,0
		C132.3,149.8,137.2,140,145.3,134.3z"/>
	<path class="st1" d="M57.3,163.3c9.6,0,19.1,0,28.7,0c1.1,0.2,3.7-0.6,3.2,1.6c0.1,10,0,20,0,30C72.2,195.5,57,180.3,57.3,163.3z"
		/>
</g>
<g id="_x23_f2cf63ff">
	<path class="st2" d="M167.2,89.5c0-10.7-0.1-21.3,0.1-31.9c6.9,0.6,13.8,2.4,19.2,6.8c7.7,5.9,12.6,15.3,12.3,25.1
		C188.3,89.5,177.8,89.5,167.2,89.5z"/>
	<path class="st2" d="M92.6,93.3c10.6-1.2,21.3-0.2,31.9-0.5c0.2,10.6,0,21.2,0.1,31.8c-10.6,0-21.3,0-31.9,0
		C92.7,114.1,92.8,103.7,92.6,93.3z"/>
	<path class="st2" d="M179.5,128.7c8.9-2.6,18.9,4,19.9,13.2c1.5,8.9-6.3,18.1-15.3,17.8c-8.3,0.6-15.9-6.5-16.4-14.7
		C167.1,137.7,172.3,130.4,179.5,128.7z"/>
	<path class="st2" d="M92.7,163.4c10.7-0.1,21.3,0,32,0c0.3,16.9-15,32.3-32,31.4C92.7,184.3,92.7,173.8,92.7,163.4z"/>
</g>
<g id="_x23_fe1d5bff">
	<path class="st3" d="M57.4,89.5c0-10,0-20,0-29.9c10.6,0,21.2,0,31.8,0c0,10,0,19.9,0,29.9C78.6,89.6,68,89.5,57.4,89.5z"/>
	<path class="st3" d="M131.7,92.8c10.5,0,20.9-0.1,31.4,0.1c-0.8,1-1.6,1.9-2.4,2.9c-9.6,9.6-19.3,19.2-29,28.8
		C131.6,113.9,131.6,103.4,131.7,92.8z"/>
	<path class="st3" d="M93.2,128.3c2.7,0,5.4,0,8.2,0.1c-0.1,10.5,0,21-0.1,31.4c-2.7,0-5.4,0-8.1,0
		C93.2,149.3,93.2,138.8,93.2,128.3z"/>
	<path class="st3" d="M104.8,128.4c2.8-0.1,5.7-0.1,8.5,0c0,10.4-0.1,20.9,0,31.3c-2.9,0.2-5.7,0.2-8.6,0
		C104.8,149.2,104.8,138.8,104.8,128.4z"/>
	<path class="st3" d="M116.7,128.4c2.8-0.1,5.6-0.1,8.3-0.1c-0.1,10.5-0.1,21,0,31.5c-2.8,0-5.5,0-8.3,0
		C116.7,149.3,116.8,138.9,116.7,128.4z"/>
	<path class="st3" d="M167.6,163.3c17-0.4,32.4,14.8,31.9,31.8c-10.6-0.3-21.2,0.4-31.8-0.3C167.4,184.4,167.7,173.9,167.6,163.3z"
		/>
</g>
<g id="_x23_6d94ceff">
	<path class="st4" d="M92.7,59.6c10.6,0,21.2,0,31.8,0c0,10,0,20,0,29.9c-10.6,0-21.3,0-31.9,0C92.7,79.5,92.7,69.6,92.7,59.6z"/>
	<path class="st4" d="M167.2,93.2c10.5,0,21.1,0,31.6,0c0,10.5,0,21,0,31.4c-10.5,0-21.1,0-31.6,0
		C167.2,114.2,167.2,103.7,167.2,93.2z"/>
	<path class="st4" d="M68.5,128.9c8.1-2.6,17.7,2.3,20,10.7c3.2,9.3-4.6,20.3-14.5,20.2c-8.7,0.8-17-7-16.6-15.8
		C57.2,137.2,62.1,130.9,68.5,128.9z"/>
	<path class="st4" d="M132.3,163.4c10.6-0.1,21.1,0,31.7,0c0.3,10.4,0.2,20.8,0.1,31.2c-1.2-1-2.4-1.9-3.6-3
		C151.1,182.1,141.7,172.8,132.3,163.4z"/>
</g>
</svg>
